X:3784
T:Lord Home's Reel. WM094
O:england
M:4/4
L:1/8
Q:180
C:
S:Wm.Mittell,1799
A:Kent
N:dance instructions.1st gent turn 2nd lady and the lady turn the 2nd
N:gent.lead down the middle,up,and turn
D:
H:
K:FMaj
c/B/|AFcF dGBd|AFcF dBcA|BdAc GABd|AFcF dBdf:|
|:f>gaf efga|f>gaf gefd|cAfA GABd|AFcF|dBdf:|]


